X: 1
T: polska från Ore efter Timas Hans
R: polska
S: Gabbi Dluzewski
M: 3/4
L: 1/16
K: Dm
e2 | fafd ege^c d3e | f2ed ^cdec A3E | FAFD EGE^C D3e | f2ed ^cdec A3e |
 fafd ege^c d3e | f2ed ^cdec A3E | FAFD EGE^C D3f | {ef}e2d^c d6 :|
|: g2 | a2c2 c2a2 bagf | g2c2 c2g2 {ga}g2fe | d^cde fefa gfed | d^cec A6 g2 |
 a2c2 c2a2 bagf | g2c2 c2g2 {ga}g2fe | d^cde fefa gfed | d^cec d6 |
